source/svgs/bowtie/uE012-file-to-table.svg

<svg xmlns="http://www.w3.org/2000/svg" viewBox="0 0 448 448" enable-background="new 0 0 448 448"><path d="M155.313 292.688l-22.625 22.625 36.687 36.687h-105.375v-96h128v-198.625l-57.375-57.375h-134.625v256h32v128h137.375l-36.688 36.688 22.625 22.625 75.313-75.313-75.312-75.312zm-1.938-228.688h-25.375v-25.375l25.375 25.375zm-121.375-32h64v64h64v128h-128v-192zm192 224v64h64v32h-32v32h32v32h-64v32h224v-192h-224zm96 64h32v32h-32v-32zm0 96v-32h32v32h-32zm96 0h-32v-32h32v32zm0-64h-32v-32h32v32z"/></svg>

<svg xmlns="http://www.w3.org/2000/svg" viewBox="0 0 448 448"><path d="M155.313 292.688l-22.625 22.625L169.375 352H64v-96h128V57.375L134.625 0H0v256h32v128h137.375l-36.688 36.688 22.625 22.625L230.625 368l-75.312-75.312zM153.375 64H128V38.625L153.375 64zM32 32h64v64h64v128H32V32zm192 224v64h64v32h-32v32h32v32h-64v32h224V256H224zm96 64h32v32h-32v-32zm0 96v-32h32v32h-32zm96 0h-32v-32h32v32zm0-64h-32v-32h32v32z"/></svg>
